X: 545
T: Dusty Sam
B: jims roots
M:2/4
L:1/16
Q: 1/4=100
K:A
V:1 
%S:Ford, Traditional Music in America (1940)
"A"A,2C[CE] [C2A2]A[Ac] | [c2A][AB][Ac] "E"[AB]A[AF]A | "A"A,2C[CE] [A2C]A[Ac] | "E"[Be][Ae][Be][ce] [B2e]e2 |
"A"A,2C[CE] [A2C]A[Ac]  | [A2c][AB][Ac] "E"[AB]A[FA]A | "A"A,2C[CE] [A2C]A[Ac] | "E"[Be][Ae][Be][ce] "A"[A4e] :|
|: "A"[ce]eee "D"[de][df][df][df] | "A"[c2e]e2 "E"e[ce][Ae][ce] | "A"[ce]eee "D"[de][df][df][df] | "A"[c2e]e[ec] "E"[B4e] |
"A"[ce]eee "D"[de][df][df][df] | "A"[c2e]e2 "E"e[ce][Ae][ce]  | "A"A,2C[CE] "D"[C2A]A[Ac] | "E"[Be][Ae][Be][ce] "A"[A4e] :|
% abcbook-tune_id 6298c25dfd9d53979fbf37dd


% abcbook-boost 0
% abcbook-tablature 
% abcbook-transpose 
% abcbook-lastupdated 1654178397818
% abcbook-soundfonts 
% abcbook-repeats 1


